!!! OTL: Berkowitz82
!!! Chapter: 1
!!! Section: I
!!! Page: 21
!!! Mode: 
!!! Encoder: DJB
**kern
*staff1
*I"Piano
=1-
*clefF4
*k[b-e-a-]
*E-:
*M6/8
4.E-\
8G\L
8F\
8E-\J
=2
4.G\
4.BB-/
=3
4B-\
8A-\
4G\
8F\
=4
4.G\
8r
4r
=5
4.F\
4G\
8A-\
=6
4.B-\
4.E-\
=7
8B-\L
8c\
8B-\J
8A-\L
8G\
8F\J
=8
4G\
8A-\
4.B-\
=9
8c\L
8B-\
8A-\J
8B-\L
8A-\
8G\J
=10
!!linebreak:original
8F\L
8G\
8A-\J
4.B-\
=11
8c\L
8B-\
8A-\J
8B-\L
8A-\
8G\J
=12
4.F\
4G\
8F\
=13
4.E-\
8r
4r
==
*-
